X: 4241
T: The Stewarts Rant.   a Reel.
%R: reel
B: Niel Gow & Sons "Complete Repository" v.4 p.24 #1
Z: 2021 John Chambers <jc:trillian.mit.edu>
M: C
L: 1/8
K: A
% - - - - - - - - - -
% Voice 1 formatted for compactness and proofreading.
V: 1 staves=2
e |\
(c/d/e) (f/g/a) {f}e2ce | dBfB bBfB | (c/d/e) (f/g/a) {f}e2ce | dBge {g}a2Ae || (c/d/e) (f/g/a) {f}e2ce |
dBfB bBfB | cefa efce | defg {g}a2A |[| e | c>A A/A/A cAcA | B>E E/E/E BEBd |
cA A/A/A cAcA | BE E/E/E (e2A)>e || cAeA fAeA | GEBE (GAB).d | cAeA aAbA | c'ad'c' Tb2a |]
% - - - - - - - - - -
% Voice 2 preserves the book's staff layout.
V: 2 clef=bass middle=d
z |\
A2a2 a2a2 | b2b2 b2b2 | a2a2 c2A2 | d2e2 A2A2 || a2a2 a2a2 |
b2b2 b2b2 | a2e2 c2A2 | d2d2 c2A |[| z | a2a2 a2a2 | e2e2 e2g2 | a2a2 a2a2 |
e2e2 A2A2 || a2c'2 d'2c'2 | e2e2 e2g2 | a2c'2 c'4 | e'2e'2 e2a |]


